public/piece/anarcandy/bR.svg

<svg xmlns="http://www.w3.org/2000/svg" width="512" height="512" fill="none"><path fill="#00173C" d="M328.469 486.071h-197.29c-7.831 0-14.179-7.144-14.179-15.957V81.292c0-6.25 2.925-12.04 7.698-15.236l40.073-26.836A30.869 30.869 0 0 1 181.948 34h193.331c11.366 0 20.58 9.214 20.58 20.58v352.47c0 6.372-2.033 12.533-5.73 17.36l-37.79 49.349c-5.986 7.817-14.701 12.312-23.87 12.312Z"/><path fill="#FF385C" d="M208.899 296.317a36.742 36.742 0 0 1-4.232-5.568c-1.188-2.079-2.079-4.158-2.673-6.237a26.327 26.327 0 0 0-.668 2.896l-.891 2.673-.891 2.227a7.561 7.561 0 0 1-1.782 2.005c1.188 1.039 2.079 1.856 2.673 2.45a10.385 10.385 0 0 1 1.559 2.004l1.114 2.228c.445.891 1.113 2.153 2.004 3.786a81.327 81.327 0 0 1 4.677 9.578 55.334 55.334 0 0 1 2.673 9.354 55.512 55.512 0 0 1-5.345 3.564c-1.931 1.039-3.787 1.782-5.569 2.227-1.187 9.058-2.821 17.745-4.9 26.06-2.078 8.315-4.454 16.037-7.127 23.164 4.455 4.009 9.28 7.127 14.477 9.355a51.263 51.263 0 0 0 16.26 4.009l.223-87.756a31.437 31.437 0 0 1-6.237-3.341c-2.079-1.485-3.86-3.044-5.345-4.678ZM188.853 352.446a360.618 360.618 0 0 0 5.123-23.387c-2.079-4.455-4.529-8.909-7.351-13.364-2.821-4.455-6.088-8.687-9.8-12.696-1.485 7.87-3.415 15.22-5.791 22.051-2.524 6.83-5.494 12.918-8.909 18.264 1.485 3.266 2.97 6.31 4.455 9.132a72.009 72.009 0 0 0 4.9 8.018 78.153 78.153 0 0 0 5.345 6.905 78.462 78.462 0 0 0 5.791 6.459c2.228-6.682 4.306-13.809 6.237-21.382ZM285.964 259.789c.594-1.336.891-2.821.891-4.454v-7.351h10.468a174.092 174.092 0 0 0-4.009-14.032 363.406 363.406 0 0 0-4.678-13.586c-3.415 6.088-6.236 12.992-8.463 20.714-2.228 7.721-3.564 16.185-4.009 25.391 1.484 0 2.895-.223 4.231-.668 1.188-.594 2.302-1.411 3.341-2.45a14.442 14.442 0 0 0 2.228-3.564ZM280.395 290.526a8.589 8.589 0 0 0-4.231-1.113c.296 4.603.89 9.057 1.781 13.364a109.232 109.232 0 0 0 2.896 12.472 89.153 89.153 0 0 0 3.786 11.137 89.9 89.9 0 0 0 4.9 10.023 175.683 175.683 0 0 0 4.455-13.364 188.169 188.169 0 0 0 3.564-14.477l-10.691-.446v-7.573c0-1.336-.297-2.673-.891-4.009a14.48 14.48 0 0 0-2.228-3.564c-1.039-1.039-2.153-1.856-3.341-2.45Z"/><path fill="#FF385C" d="M266.809 260.235a9.782 9.782 0 0 0 2.673 3.786c.445-5.197 1.187-10.097 2.227-14.7.891-4.752 2.004-9.206 3.341-13.364 1.336-4.306 2.895-8.315 4.677-12.028 1.782-3.712 3.787-7.053 6.014-10.022-2.673-6.088-5.791-11.805-9.355-17.151-3.563-5.494-7.424-10.542-11.582-15.146-3.118 9.207-5.791 19.452-8.018 30.737-2.376 11.137-4.083 23.09-5.123 35.86l1.782-.223v60.138l-1.782-.223a237.042 237.042 0 0 0 2.005 18.264 211.563 211.563 0 0 0 2.895 17.373 164.312 164.312 0 0 0 3.787 15.814 184.318 184.318 0 0 0 4.454 14.478 124.835 124.835 0 0 0 11.805-14.7 107.507 107.507 0 0 0 9.132-16.705c-2.227-2.97-4.232-6.311-6.014-10.023a92.923 92.923 0 0 1-4.677-11.805 125.406 125.406 0 0 1-3.341-13.364c-1.04-4.751-1.782-9.726-2.227-14.923a9.785 9.785 0 0 0-2.673 3.787 10.316 10.316 0 0 0-1.114 4.677v7.35h-6.459v-60.138h6.459v7.573c0 1.485.371 3.044 1.114 4.678ZM186.18 250.657a35.14 35.14 0 0 1 10.246-2.895c-1.337-12.622-3.119-24.426-5.346-35.415-2.376-11.136-5.197-21.233-8.464-30.291-3.86 4.009-7.498 8.538-10.914 13.587-3.563 4.9-6.756 10.394-9.577 16.482 3.712 5.642 6.905 12.25 9.577 19.823 2.525 7.424 4.381 15.442 5.569 24.055a33.851 33.851 0 0 1 8.909-5.346ZM161.011 288.744a16.313 16.313 0 0 0-4.454-1.113c-.149-1.337 0-2.525.445-3.564a7.074 7.074 0 0 1 2.005-2.673 6.607 6.607 0 0 1 3.118-1.782c1.039-.445 2.153-.594 3.341-.445 0-2.821.52-5.568 1.559-8.241.891-2.673 2.153-4.975 3.786-6.905a328.708 328.708 0 0 0-1.559-12.696 142.915 142.915 0 0 0-2.672-12.027 155.492 155.492 0 0 0-3.787-10.914c-1.336-3.564-2.821-6.83-4.455-9.8-3.266 8.909-5.791 18.412-7.572 28.51-1.931 9.948-2.896 20.268-2.896 30.959 0 10.394.891 20.417 2.673 30.069 1.782 9.652 4.232 18.932 7.35 27.842 2.97-5.049 5.568-10.914 7.796-17.596 2.078-6.831 3.563-14.181 4.454-22.051-.445-1.188-1.113-2.301-2.004-3.341-1.04-1.039-2.153-1.856-3.341-2.45a17.688 17.688 0 0 0-3.787-1.782ZM212.24 253.998a34.018 34.018 0 0 0 8.241 2.896l-.223-92.211a44.324 44.324 0 0 0-15.814 3.341c-5.197 1.93-10.097 4.751-14.7 8.464 1.93 4.9 3.712 10.171 5.345 15.814a373.354 373.354 0 0 1 4.232 17.373 306.934 306.934 0 0 1 3.118 18.709 403.06 403.06 0 0 1 2.228 20.269 43.795 43.795 0 0 0 7.573 5.345ZM228.722 164.906v92.656c2.524-.149 5.123-.594 7.795-1.336a27.477 27.477 0 0 0 7.128-3.787 236.793 236.793 0 0 1 2.227-21.159c.891-6.831 2.005-13.364 3.341-19.601 1.188-6.385 2.599-12.399 4.232-18.041 1.485-5.791 3.192-11.211 5.123-16.259-4.455-3.713-9.132-6.608-14.032-8.687a52.387 52.387 0 0 0-15.814-3.786ZM246.317 327.945a273.677 273.677 0 0 1-2.004-19.6 43.098 43.098 0 0 1-7.573.223 37.688 37.688 0 0 1-8.018-1.337l-.223 84.861a61.424 61.424 0 0 0 16.037-4.455 64.266 64.266 0 0 0 14.477-9.132c-1.93-4.751-3.638-9.8-5.123-15.145a201.648 201.648 0 0 1-4.232-16.928 227.581 227.581 0 0 1-3.341-18.487ZM291.977 292.976v11.137h22.274v-4.455h-8.91v-5.791h-4.677v5.791h-4.009v-6.682h-4.678ZM291.977 285.403v4.678h22.274v-4.678h-22.274Z"/><path fill="#FF385C" fill-rule="evenodd" d="M291.977 275.158v6.904h22.274v-6.904a8.41 8.41 0 0 0-.446-2.673 2.794 2.794 0 0 0-.668-1.114l-1.114-1.113c-.891-.594-2.004-1.04-3.341-1.337-1.336-.445-3.192-.668-5.568-.668-.891 0-1.633.074-2.227.223a11.3 11.3 0 0 0-2.228.223c-1.336.148-2.524.519-3.563 1.113-1.04.594-1.856 1.262-2.45 2.005-.446.891-.669 2.004-.669 3.341Zm17.374 2.45h-12.473v-1.337c0-1.188.445-2.078 1.336-2.672 1.039-.446 2.673-.669 4.9-.669 1.931 0 3.267.075 4.009.223.891.297 1.411.668 1.56 1.114.148.148.296.445.445.891.148.297.223.668.223 1.113v1.337Z" clip-rule="evenodd"/><path fill="#FF385C" d="M291.977 253.776v12.25h22.274v-12.473h-4.9v8.018h-4.455v-7.35h-4.677v7.35h-3.564v-7.795h-4.678Z"/><path fill="#FF9CAE" d="M323.709 84.215H144.608c-4.031 0-12.353-2.169-9.549-5.312 3.984-4.465 10.043-4.436 15.827-4.407.456.002.909.004 1.36.004h168.237c6.798 0 15.307-.089 20.839-4.378L366.5 51c4.574-3.546 13.04-8.844 17.526-5.167 1.974 1.667-5.877 8.162-9.273 10.96L352 75.5c-8.129 6.696-8.5 16.23-8.5 27.309v340.352c0 6.173-.755 16.304-6.012 18.659-3.697 1.656-3.988-5.506-3.988-9.848V98.382c0-7.969-5.287-14.167-9.791-14.167ZM185.159 49.06l-5.253 2.843c-3.466 1.876-1.895 6.416 2.221 6.416h45.727c3.192 0 6.305-.836 8.912-2.393l4.352-2.599c3.283-1.96 1.642-6.327-2.376-6.327h-45.255c-2.952 0-5.842.715-8.328 2.06Z"/><path fill="#FF9CAE" d="m268.684 49.801-3.452 2.3c-3.071 2.045-1.36 6.218 2.549 6.218h48.549c3.206 0 6.332-.843 8.946-2.413l4.303-2.584c3.272-1.965 1.628-6.322-2.385-6.322h-48.95c-3.469 0-6.836.987-9.56 2.801Z"/></svg>

<svg width="512" height="512" viewBox="0 0 512 512" fill="none" xmlns="http://www.w3.org/2000/svg">
<path d="M328.469 486.071H131.179C123.348 486.071 117 478.927 117 470.114V81.2916C117 75.0413 119.925 69.2527 124.698 66.0563L164.771 39.2203C169.853 35.817 175.831 34 181.948 34H375.279C386.645 34 395.859 43.214 395.859 54.58V407.05C395.859 413.422 393.826 419.583 390.129 424.41L352.339 473.759C346.353 481.576 337.638 486.071 328.469 486.071Z" fill="#00173C"/>
<path d="M208.899 296.317C207.265 294.535 205.855 292.679 204.667 290.749C203.479 288.67 202.588 286.591 201.994 284.512C201.697 285.552 201.474 286.517 201.326 287.408L200.435 290.081L199.544 292.308C199.098 293.05 198.504 293.719 197.762 294.313C198.95 295.352 199.841 296.169 200.435 296.763C201.029 297.357 201.548 298.025 201.994 298.767L203.108 300.995C203.553 301.886 204.221 303.148 205.112 304.781C206.894 307.899 208.453 311.092 209.789 314.359C210.977 317.477 211.868 320.595 212.462 323.713C210.68 325.05 208.899 326.238 207.117 327.277C205.186 328.316 203.33 329.059 201.548 329.504C200.361 338.562 198.727 347.249 196.648 355.564C194.57 363.879 192.194 371.601 189.521 378.728C193.976 382.737 198.801 385.855 203.998 388.083C209.195 390.31 214.615 391.646 220.258 392.092L220.481 304.336C218.253 303.445 216.175 302.331 214.244 300.995C212.165 299.51 210.384 297.951 208.899 296.317Z" fill="#FF385C"/>
<path d="M188.853 352.446C190.783 344.873 192.491 337.077 193.976 329.059C191.897 324.604 189.447 320.15 186.625 315.695C183.804 311.24 180.537 307.008 176.825 302.999C175.34 310.869 173.41 318.219 171.034 325.05C168.51 331.88 165.54 337.968 162.125 343.314C163.61 346.58 165.095 349.624 166.58 352.446C168.064 355.267 169.698 357.94 171.48 360.464C173.113 362.84 174.895 365.141 176.825 367.369C178.607 369.596 180.537 371.749 182.616 373.828C184.844 367.146 186.922 360.019 188.853 352.446Z" fill="#FF385C"/>
<path d="M285.964 259.789C286.558 258.453 286.855 256.968 286.855 255.335V247.984H297.323C296.135 243.084 294.799 238.407 293.314 233.952C291.829 229.349 290.27 224.82 288.636 220.366C285.221 226.454 282.4 233.358 280.173 241.08C277.945 248.801 276.609 257.265 276.164 266.471C277.648 266.471 279.059 266.248 280.395 265.803C281.583 265.209 282.697 264.392 283.736 263.353C284.627 262.314 285.37 261.126 285.964 259.789Z" fill="#FF385C"/>
<path d="M280.395 290.526C279.059 289.784 277.648 289.413 276.164 289.413C276.46 294.016 277.054 298.47 277.945 302.777C278.688 307.083 279.653 311.24 280.841 315.249C281.88 319.11 283.142 322.822 284.627 326.386C286.112 329.95 287.746 333.291 289.527 336.409C291.161 332.103 292.646 327.648 293.982 323.045C295.318 318.442 296.506 313.616 297.546 308.568L286.855 308.122V300.549C286.855 299.213 286.558 297.876 285.964 296.54C285.37 295.204 284.627 294.016 283.736 292.976C282.697 291.937 281.583 291.12 280.395 290.526Z" fill="#FF385C"/>
<path d="M266.809 260.235C267.403 261.72 268.294 262.982 269.482 264.021C269.927 258.824 270.669 253.924 271.709 249.321C272.6 244.569 273.713 240.115 275.05 235.957C276.386 231.651 277.945 227.642 279.727 223.929C281.509 220.217 283.514 216.876 285.741 213.907C283.068 207.819 279.95 202.102 276.386 196.756C272.823 191.262 268.962 186.214 264.804 181.61C261.686 190.817 259.013 201.062 256.786 212.347C254.41 223.484 252.703 235.437 251.663 248.207L253.445 247.984V308.122L251.663 307.899C252.109 314.136 252.777 320.224 253.668 326.163C254.41 332.103 255.375 337.894 256.563 343.536C257.603 349.03 258.865 354.302 260.35 359.35C261.686 364.399 263.171 369.225 264.804 373.828C269.11 369.225 273.045 364.325 276.609 359.128C280.173 353.782 283.217 348.214 285.741 342.423C283.514 339.453 281.509 336.112 279.727 332.4C277.945 328.688 276.386 324.753 275.05 320.595C273.713 316.289 272.6 311.834 271.709 307.231C270.669 302.48 269.927 297.505 269.482 292.308C268.294 293.347 267.403 294.61 266.809 296.095C266.066 297.579 265.695 299.139 265.695 300.772V308.122H259.236V247.984H265.695V255.557C265.695 257.042 266.066 258.601 266.809 260.235Z" fill="#FF385C"/>
<path d="M186.18 250.657C189.447 249.172 192.862 248.207 196.426 247.762C195.089 235.14 193.307 223.336 191.08 212.347C188.704 201.211 185.883 191.114 182.616 182.056C178.756 186.065 175.118 190.594 171.702 195.643C168.139 200.543 164.946 206.037 162.125 212.125C165.837 217.767 169.03 224.375 171.702 231.948C174.227 239.372 176.083 247.39 177.271 256.003C179.943 253.776 182.913 251.994 186.18 250.657Z" fill="#FF385C"/>
<path d="M161.011 288.744C159.526 288.15 158.042 287.779 156.557 287.631C156.408 286.294 156.557 285.106 157.002 284.067C157.448 283.028 158.116 282.137 159.007 281.394C159.898 280.503 160.937 279.909 162.125 279.612C163.164 279.167 164.278 279.018 165.466 279.167C165.466 276.346 165.986 273.599 167.025 270.926C167.916 268.253 169.178 265.951 170.811 264.021C170.366 259.715 169.846 255.483 169.252 251.325C168.51 247.168 167.619 243.159 166.58 239.298C165.392 235.437 164.129 231.799 162.793 228.384C161.457 224.82 159.972 221.554 158.338 218.584C155.072 227.493 152.547 236.996 150.766 247.094C148.835 257.042 147.87 267.362 147.87 278.053C147.87 288.447 148.761 298.47 150.543 308.122C152.325 317.774 154.775 327.054 157.893 335.964C160.863 330.915 163.461 325.05 165.689 318.368C167.767 311.537 169.252 304.187 170.143 296.317C169.698 295.129 169.03 294.016 168.139 292.976C167.099 291.937 165.986 291.12 164.798 290.526C163.61 289.784 162.348 289.19 161.011 288.744Z" fill="#FF385C"/>
<path d="M212.24 253.998C214.912 255.335 217.659 256.3 220.481 256.894L220.258 164.683C214.764 164.831 209.493 165.945 204.444 168.024C199.247 169.954 194.347 172.775 189.744 176.488C191.674 181.388 193.456 186.659 195.089 192.302C196.574 197.796 197.985 203.587 199.321 209.675C200.509 215.614 201.548 221.851 202.439 228.384C203.33 234.918 204.073 241.674 204.667 248.653C207.043 250.731 209.567 252.513 212.24 253.998Z" fill="#FF385C"/>
<path d="M228.722 164.906V257.562C231.246 257.413 233.845 256.968 236.517 256.226C239.042 255.335 241.417 254.072 243.645 252.439C244.09 245.163 244.833 238.11 245.872 231.28C246.763 224.449 247.877 217.916 249.213 211.679C250.401 205.294 251.812 199.28 253.445 193.638C254.93 187.847 256.637 182.427 258.568 177.379C254.113 173.666 249.436 170.771 244.536 168.692C239.487 166.613 234.216 165.351 228.722 164.906Z" fill="#FF385C"/>
<path d="M246.317 327.945C245.427 321.56 244.758 315.027 244.313 308.345C241.789 308.642 239.264 308.716 236.74 308.568C234.067 308.419 231.394 307.974 228.722 307.231L228.499 392.092C233.993 391.349 239.339 389.865 244.536 387.637C249.733 385.261 254.559 382.217 259.013 378.505C257.083 373.754 255.375 368.705 253.89 363.36C252.257 357.865 250.846 352.223 249.658 346.432C248.322 340.492 247.208 334.33 246.317 327.945Z" fill="#FF385C"/>
<path d="M291.977 292.976V304.113H314.251V299.658H305.341V293.867H300.664V299.658H296.655V292.976H291.977Z" fill="#FF385C"/>
<path d="M291.977 285.403V290.081H314.251V285.403H291.977Z" fill="#FF385C"/>
<path fill-rule="evenodd" clip-rule="evenodd" d="M291.977 275.158V282.062H314.251V275.158C314.251 274.267 314.102 273.376 313.805 272.485C313.657 272.04 313.434 271.668 313.137 271.371L312.023 270.258C311.132 269.664 310.019 269.218 308.682 268.921C307.346 268.476 305.49 268.253 303.114 268.253C302.223 268.253 301.481 268.327 300.887 268.476C300.144 268.476 299.402 268.55 298.659 268.699C297.323 268.847 296.135 269.218 295.096 269.812C294.056 270.406 293.24 271.074 292.646 271.817C292.2 272.708 291.977 273.821 291.977 275.158ZM309.351 277.608H296.878L296.878 276.271C296.878 275.083 297.323 274.193 298.214 273.599C299.253 273.153 300.887 272.93 303.114 272.93C305.045 272.93 306.381 273.005 307.123 273.153C308.014 273.45 308.534 273.821 308.683 274.267C308.831 274.415 308.979 274.712 309.128 275.158C309.276 275.455 309.351 275.826 309.351 276.271V277.608Z" fill="#FF385C"/>
<path d="M291.977 253.776V266.026H314.251V253.553H309.351V261.571H304.896V254.221H300.219V261.571H296.655V253.776H291.977Z" fill="#FF385C"/>
<path d="M323.709 84.2154H144.608C140.577 84.2154 132.255 82.046 135.059 78.9031C139.043 74.438 145.102 74.4674 150.886 74.4955C151.342 74.4978 151.795 74.5 152.246 74.5H320.483C327.281 74.5 335.79 74.411 341.322 70.1221L366.5 51C371.074 47.4539 379.54 42.1558 384.026 45.8332C386 47.4999 378.149 53.9953 374.753 56.7927L352 75.4999C343.871 82.1959 343.5 91.7308 343.5 102.809V443.161C343.5 449.334 342.745 459.465 337.488 461.82C333.791 463.476 333.5 456.314 333.5 451.972V98.3816C333.5 90.4131 328.213 84.2154 323.709 84.2154Z" fill="#FF9CAE"/>
<path d="M185.159 49.0604L179.906 51.9029C176.44 53.7787 178.011 58.319 182.127 58.319H227.854C231.046 58.319 234.159 57.4832 236.766 55.9265L241.118 53.3275C244.401 51.3674 242.76 47 238.742 47H193.487C190.535 47 187.645 47.715 185.159 49.0604Z" fill="#FF9CAE"/>
<path d="M268.684 49.8011L265.232 52.1004C262.161 54.1458 263.872 58.319 267.781 58.319H316.33C319.536 58.319 322.662 57.4758 325.276 55.9064L329.579 53.3222C332.851 51.3574 331.207 47 327.194 47H278.244C274.775 47 271.408 47.9866 268.684 49.8011Z" fill="#FF9CAE"/>
</svg>
